public/resources/svg/document.svg

<svg enable-background="new 0 0 480 480" viewBox="0 0 480 480" xmlns="http://www.w3.org/2000/svg"><path d="m160 344h-16c-4.418 0-8 3.582-8 8s3.582 8 8 8h16c4.418 0 8-3.582 8-8s-3.582-8-8-8z"/><path d="m384 344h-192c-4.418 0-8 3.582-8 8s3.582 8 8 8h192c4.418 0 8-3.582 8-8s-3.582-8-8-8z"/><path d="m160 296h-16c-4.418 0-8 3.582-8 8s3.582 8 8 8h16c4.418 0 8-3.582 8-8s-3.582-8-8-8z"/><path d="m384 296h-192c-4.418 0-8 3.582-8 8s3.582 8 8 8h192c4.418 0 8-3.582 8-8s-3.582-8-8-8z"/><path d="m160 248h-16c-4.418 0-8 3.582-8 8s3.582 8 8 8h16c4.418 0 8-3.582 8-8s-3.582-8-8-8z"/><path d="m384 248h-192c-4.418 0-8 3.582-8 8s3.582 8 8 8h192c4.418 0 8-3.582 8-8s-3.582-8-8-8z"/><path d="m160 200h-16c-4.418 0-8 3.582-8 8s3.582 8 8 8h16c4.418 0 8-3.582 8-8s-3.582-8-8-8z"/><path d="m384 200h-192c-4.418 0-8 3.582-8 8s3.582 8 8 8h192c4.418 0 8-3.582 8-8s-3.582-8-8-8z"/><path d="m160 152h-16c-4.418 0-8 3.582-8 8s3.582 8 8 8h16c4.418 0 8-3.582 8-8s-3.582-8-8-8z"/><path d="m384 152h-192c-4.418 0-8 3.582-8 8s3.582 8 8 8h192c4.418 0 8-3.582 8-8s-3.582-8-8-8z"/><path d="m439.896 119.496c-.04-.701-.177-1.393-.408-2.056-.088-.256-.152-.504-.264-.752-.389-.87-.931-1.664-1.6-2.344l-112-112c-.68-.669-1.474-1.211-2.344-1.6-.248-.112-.496-.176-.744-.264-.669-.23-1.366-.37-2.072-.416-.136.024-.288-.064-.464-.064h-224c-4.418 0-8 3.582-8 8v24h-40c-4.418 0-8 3.582-8 8v432c0 4.418 3.582 8 8 8h336c4.418 0 8-3.582 8-8v-40h40c4.418 0 8-3.582 8-8v-304c0-.176-.088-.328-.104-.504zm-111.896-92.184 84.688 84.688h-84.688zm48 436.688h-320v-416h32v376c0 4.418 3.582 8 8 8h280zm48-48h-320v-400h208v104c0 4.418 3.582 8 8 8h104z"/><path d="m192 72h-48c-4.418 0-8 3.582-8 8v48c0 4.418 3.582 8 8 8h48c4.418 0 8-3.582 8-8v-48c0-4.418-3.582-8-8-8zm-8 48h-32v-32h32z"/></svg>

<?xml version="1.0" encoding="utf-8"?>
<!-- Generator: Adobe Illustrator 24.0.3, SVG Export Plug-In . SVG Version: 6.00 Build 0)  -->
<svg version="1.1" id="Calque_1" xmlns="http://www.w3.org/2000/svg" xmlns:xlink="http://www.w3.org/1999/xlink" x="0px" y="0px"
	 viewBox="0 0 480 480" style="enable-background:new 0 0 480 480;" xml:space="preserve">
<style type="text/css">
	.st0{fill:url(#SVGID_1_);}
	.st1{fill:url(#SVGID_2_);}
	.st2{fill:url(#SVGID_3_);}
	.st3{fill:url(#SVGID_4_);}
	.st4{fill:url(#SVGID_5_);}
	.st5{fill:url(#SVGID_6_);}
	.st6{fill:url(#SVGID_7_);}
	.st7{fill:url(#SVGID_8_);}
	.st8{fill:url(#SVGID_9_);}
	.st9{fill:url(#SVGID_10_);}
	.st10{fill:url(#SVGID_11_);stroke:url(#SVGID_12_);stroke-width:0.5;stroke-miterlimit:10;}
	.st11{fill:url(#SVGID_13_);}
</style>
<linearGradient id="SVGID_1_" gradientUnits="userSpaceOnUse" x1="136" y1="352" x2="168" y2="352">
	<stop  offset="0" style="stop-color:#210050"/>
	<stop  offset="1" style="stop-color:#4D0030"/>
</linearGradient>
<path class="st0" d="M160,344h-16c-4.4,0-8,3.6-8,8s3.6,8,8,8h16c4.4,0,8-3.6,8-8S164.4,344,160,344z"/>
<linearGradient id="SVGID_2_" gradientUnits="userSpaceOnUse" x1="184" y1="352" x2="392" y2="352">
	<stop  offset="0" style="stop-color:#210050"/>
	<stop  offset="1" style="stop-color:#4D0030"/>
</linearGradient>
<path class="st1" d="M384,344H192c-4.4,0-8,3.6-8,8s3.6,8,8,8h192c4.4,0,8-3.6,8-8S388.4,344,384,344z"/>
<linearGradient id="SVGID_3_" gradientUnits="userSpaceOnUse" x1="136" y1="304" x2="168" y2="304">
	<stop  offset="0" style="stop-color:#210050"/>
	<stop  offset="1" style="stop-color:#4D0030"/>
</linearGradient>
<path class="st2" d="M160,296h-16c-4.4,0-8,3.6-8,8s3.6,8,8,8h16c4.4,0,8-3.6,8-8S164.4,296,160,296z"/>
<linearGradient id="SVGID_4_" gradientUnits="userSpaceOnUse" x1="184" y1="304" x2="392" y2="304">
	<stop  offset="0" style="stop-color:#210050"/>
	<stop  offset="1" style="stop-color:#4D0030"/>
</linearGradient>
<path class="st3" d="M384,296H192c-4.4,0-8,3.6-8,8s3.6,8,8,8h192c4.4,0,8-3.6,8-8S388.4,296,384,296z"/>
<linearGradient id="SVGID_5_" gradientUnits="userSpaceOnUse" x1="136" y1="256" x2="168" y2="256">
	<stop  offset="0" style="stop-color:#210050"/>
	<stop  offset="1" style="stop-color:#4D0030"/>
</linearGradient>
<path class="st4" d="M160,248h-16c-4.4,0-8,3.6-8,8s3.6,8,8,8h16c4.4,0,8-3.6,8-8S164.4,248,160,248z"/>
<linearGradient id="SVGID_6_" gradientUnits="userSpaceOnUse" x1="184" y1="256" x2="392" y2="256">
	<stop  offset="0" style="stop-color:#210050"/>
	<stop  offset="1" style="stop-color:#4D0030"/>
</linearGradient>
<path class="st5" d="M384,248H192c-4.4,0-8,3.6-8,8s3.6,8,8,8h192c4.4,0,8-3.6,8-8S388.4,248,384,248z"/>
<linearGradient id="SVGID_7_" gradientUnits="userSpaceOnUse" x1="136" y1="208" x2="168" y2="208">
	<stop  offset="0" style="stop-color:#210050"/>
	<stop  offset="1" style="stop-color:#4D0030"/>
</linearGradient>
<path class="st6" d="M160,200h-16c-4.4,0-8,3.6-8,8s3.6,8,8,8h16c4.4,0,8-3.6,8-8S164.4,200,160,200z"/>
<linearGradient id="SVGID_8_" gradientUnits="userSpaceOnUse" x1="184" y1="208" x2="392" y2="208">
	<stop  offset="0" style="stop-color:#210050"/>
	<stop  offset="1" style="stop-color:#4D0030"/>
</linearGradient>
<path class="st7" d="M384,200H192c-4.4,0-8,3.6-8,8s3.6,8,8,8h192c4.4,0,8-3.6,8-8S388.4,200,384,200z"/>
<linearGradient id="SVGID_9_" gradientUnits="userSpaceOnUse" x1="136" y1="160" x2="168" y2="160">
	<stop  offset="0" style="stop-color:#210050"/>
	<stop  offset="1" style="stop-color:#4D0030"/>
</linearGradient>
<path class="st8" d="M160,152h-16c-4.4,0-8,3.6-8,8s3.6,8,8,8h16c4.4,0,8-3.6,8-8S164.4,152,160,152z"/>
<linearGradient id="SVGID_10_" gradientUnits="userSpaceOnUse" x1="184" y1="160" x2="392" y2="160">
	<stop  offset="0" style="stop-color:#210050"/>
	<stop  offset="1" style="stop-color:#4D0030"/>
</linearGradient>
<path class="st9" d="M384,152H192c-4.4,0-8,3.6-8,8s3.6,8,8,8h192c4.4,0,8-3.6,8-8S388.4,152,384,152z"/>
<linearGradient id="SVGID_11_" gradientUnits="userSpaceOnUse" x1="40" y1="240" x2="440" y2="240">
	<stop  offset="0" style="stop-color:#210050"/>
	<stop  offset="1" style="stop-color:#4D0030"/>
</linearGradient>
<linearGradient id="SVGID_12_" gradientUnits="userSpaceOnUse" x1="39.75" y1="240" x2="440.25" y2="240">
	<stop  offset="0" style="stop-color:#210050"/>
	<stop  offset="1" style="stop-color:#4D0030"/>
</linearGradient>
<path class="st10" d="M439.9,119.5c0-0.7-0.2-1.4-0.4-2.1c-0.1-0.3-0.2-0.5-0.3-0.8c-0.4-0.9-0.9-1.7-1.6-2.3l-112-112
	c-0.7-0.7-1.5-1.2-2.3-1.6c-0.2-0.1-0.5-0.2-0.7-0.3c-0.7-0.2-1.4-0.4-2.1-0.4c-0.1,0-0.3-0.1-0.5-0.1H96c-4.4,0-8,3.6-8,8v24H48
	c-4.4,0-8,3.6-8,8v432c0,4.4,3.6,8,8,8h336c4.4,0,8-3.6,8-8v-40h40c4.4,0,8-3.6,8-8V120C440,119.8,439.9,119.7,439.9,119.5
	L439.9,119.5z M328,27.3l84.7,84.7H328V27.3z M376,464H56V48h32v376c0,4.4,3.6,8,8,8h280V464z M424,416H104V16h208v104
	c0,4.4,3.6,8,8,8h104V416z"/>
<linearGradient id="SVGID_13_" gradientUnits="userSpaceOnUse" x1="136" y1="104" x2="200" y2="104">
	<stop  offset="0" style="stop-color:#210050"/>
	<stop  offset="1" style="stop-color:#4D0030"/>
</linearGradient>
<path class="st11" d="M192,72h-48c-4.4,0-8,3.6-8,8v48c0,4.4,3.6,8,8,8h48c4.4,0,8-3.6,8-8V80C200,75.6,196.4,72,192,72z M184,120
	h-32V88h32V120z"/>
</svg>
